X:26
T: Winterrosen
N: Q0145D
O: Mitteleuropa, Deutschland (BRD) , Rheinland, Bessenich
N: Refrain auf sinnfreie Silben in der dritten Zeile.
R: Ballade, Verfuehrung, verlorene Ehre
M: 2/4
L: 1/16
K: C
G2 | A2G2G2G2 | A2G2G2G
G | A2G2F2E2 | E4D4
C4E4 | G8 | G4B4 | d6
c2 | B6A2 | G6F2 | F4E2

